!! 00000] TT[WS
!!!OTL: Guanggunr kuqi
!!!ARE: Asia, China, Shanxi Jinbei
!! Ethnic Group: Han
!! WII, 148 (2)
!!!SCT: J0626
!!!YEM: Copyright 1995, estate of Helmut Schaffrath.
**kern
*ICvox
*Ivox
*M2/4
*k[b-]
*F:
{8.dd
16dd
8dd
8dd
=1
8dd
16ff
16a
4cc
=2
8dd
16dd
16cc
8a
8cc
=3
8dd
16cc
16a
4g}
=4
{8g
16g
16f
8g
8a
=5
8cc
8a
4cc
=6
16g
16a
16g
16f
8d
16c
16d
=7
2f}
=8
{8g
16g
16f
8g
8a
=9
4g
12g
12f
12d
=10
8g
16g
16f
8d
16f
16d
=11
2c}
==
!!!AGN: Xiaodiao. Qingge, Aisu
!!!ONB: ESAC (Essen Associative Code) Database: CHINA
!!!AMT: simple duple
!!!AIN: vox
!!!EED: Helmut Schaffrath
!!!EEV: 1.0
*-
